dist/svgs/unicons/line/horizontal-align-center.svg

<svg xmlns="http://www.w3.org/2000/svg" viewBox="0 0 24 24"><path d="M21 10h-2V7a1 1 0 00-1-1h-5V3a1 1 0 00-2 0v3H6a1 1 0 00-1 1v3H3a1 1 0 00-1 1v6a1 1 0 001 1h8v3a1 1 0 002 0v-3h8a1 1 0 001-1v-6a1 1 0 00-1-1zM7 8h10v2H7zm13 8H4v-4h16z"/></svg>

<svg xmlns="http://www.w3.org/2000/svg" viewBox="0 0 24 24"><path d="M21,10H19V7a1,1,0,0,0-1-1H13V3a1,1,0,0,0-2,0V6H6A1,1,0,0,0,5,7v3H3a1,1,0,0,0-1,1v6a1,1,0,0,0,1,1h8v3a1,1,0,0,0,2,0V18h8a1,1,0,0,0,1-1V11A1,1,0,0,0,21,10ZM7,8H17v2H7Zm13,8H4V12H20Z"/></svg>
